svg/file/box_line.svg

<?xml version="1.0" encoding="UTF-8"?>
<svg width="24px" height="24px" viewBox="0 0 24 24" version="1.1" xmlns="http://www.w3.org/2000/svg" xmlns:xlink="http://www.w3.org/1999/xlink">
    <title>box_line</title>
    <g id="页面-1" stroke="none" stroke-width="1" fill="none" fill-rule="evenodd">
        <g id="File" transform="translate(-144.000000, 0.000000)" fill-rule="nonzero">
            <g id="box_line" transform="translate(144.000000, 0.000000)">
                 <path d="M24,0 L24,24 L0,24 L0,0 L24,0 Z M12.5934901,23.257841 L12.5819402,23.2595131 L12.5108777,23.2950439 L12.4918791,23.2987469 L12.4918791,23.2987469 L12.4767152,23.2950439 L12.4056548,23.2595131 C12.3958229,23.2563662 12.3870493,23.2590235 12.3821421,23.2649074 L12.3780323,23.275831 L12.360941,23.7031097 L12.3658947,23.7234994 L12.3769048,23.7357139 L12.4804777,23.8096931 L12.4953491,23.8136134 L12.4953491,23.8136134 L12.5071152,23.8096931 L12.6106902,23.7357139 L12.6232938,23.7196733 L12.6232938,23.7196733 L12.6266527,23.7031097 L12.609561,23.275831 C12.6075724,23.2657013 12.6010112,23.2592993 12.5934901,23.257841 L12.5934901,23.257841 Z M12.8583906,23.1452862 L12.8445485,23.1473072 L12.6598443,23.2396597 L12.6498822,23.2499052 L12.6498822,23.2499052 L12.6471943,23.2611114 L12.6650943,23.6906389 L12.6699349,23.7034178 L12.6699349,23.7034178 L12.678386,23.7104931 L12.8793402,23.8032389 C12.8914285,23.8068999 12.9022333,23.8029875 12.9078286,23.7952264 L12.9118235,23.7811639 L12.8776777,23.1665331 C12.8752882,23.1545897 12.8674102,23.1470016 12.8583906,23.1452862 L12.8583906,23.1452862 Z M12.1430473,23.1473072 C12.1332178,23.1423925 12.1221763,23.1452606 12.1156365,23.1525954 L12.1099173,23.1665331 L12.0757714,23.7811639 C12.0751323,23.7926639 12.0828099,23.8018602 12.0926481,23.8045676 L12.108256,23.8032389 L12.3092106,23.7104931 L12.3186497,23.7024347 L12.3186497,23.7024347 L12.3225043,23.6906389 L12.340401,23.2611114 L12.337245,23.2485176 L12.337245,23.2485176 L12.3277531,23.2396597 L12.1430473,23.1473072 Z" id="MingCute" fill-rule="nonzero"></path>
                <path d="M16.4338,3 C17.0822615,3 17.6868414,3.31407337 18.0603462,3.83620413 L18.1488,3.97101 L20.5725,8.01048 C20.8122429,8.41012286 20.9550796,8.85918122 20.9909974,9.32173487 L21,9.55397 L21,19 C21,20.0543909 20.18415,20.9181678 19.1492661,20.9945144 L19,21 L5,21 C3.94563773,21 3.08183483,20.18415 3.00548573,19.1492661 L3,19 L3,9.55397 C3,9.08791571 3.10856571,8.62937 3.31575359,8.21425309 L3.42752,8.01048 L5.8512,3.97101 C6.18484615,3.41493923 6.76521799,3.05809118 7.4050906,3.00648184 L7.56619,3 L16.4338,3 Z M19,10 L5,10 L5,19 L19,19 L19,10 Z M11,5 L7.56619,5 L5.76619,8 L11,8 L11,5 Z M16.4338,5 L13,5 L13,8 L18.2338,8 L16.4338,5 Z" id="形状" fill="#09244B"></path>
            </g>
        </g>
    </g>
</svg>

<svg xmlns="http://www.w3.org/2000/svg" width="24" height="24"><g fill="none" fill-rule="nonzero"><path d="M24 0v24H0V0h24ZM12.593 23.258l-.011.002-.071.035-.02.004-.014-.004-.071-.035c-.01-.004-.019-.001-.024.005l-.004.01-.017.428.005.02.01.013.104.074.015.004.012-.004.104-.074.012-.016.004-.017-.017-.427c-.002-.01-.009-.017-.017-.018Zm.265-.113-.013.002-.185.093-.01.01-.003.011.018.43.005.012.008.007.201.093c.012.004.023 0 .029-.008l.004-.014-.034-.614c-.003-.012-.01-.02-.02-.022Zm-.715.002a.023.023 0 0 0-.027.006l-.006.014-.034.614c0 .012.007.02.017.024l.015-.002.201-.093.01-.008.004-.011.017-.43-.003-.012-.01-.01-.184-.092Z"/><path fill="#09244B" d="M16.434 3a2 2 0 0 1 1.626.836l.089.135 2.424 4.04a3 3 0 0 1 .418 1.31l.009.233V19a2 2 0 0 1-1.85 1.995L19 21H5a2 2 0 0 1-1.995-1.85L3 19V9.554a3 3 0 0 1 .316-1.34l.112-.204L5.85 3.971a2 2 0 0 1 1.554-.965L7.566 3h8.868ZM19 10H5v9h14v-9Zm-8-5H7.566l-1.8 3H11V5Zm5.434 0H13v3h5.234l-1.8-3Z"/></g></svg>
